X: 49
T: Praeludia organi op. 5 – Maestoso
C: Franciszek Walczyński
%%abc-version 2.0
%%abcx-abcm2ps-target-version 5.9.1 (29 Sep 2008)
%%abc-creator hum2abc beta
%%abcx-conversion-date 2021/10/04 07:38:40
%%abc-edited-by Andrzej Borzym
%%abc-edited-by Krzysztof Stępień
%%abcx-initial-encoding-date 2021-07-26
%%humdrum-veritas 3438622550
%%humdrum-veritas-data 635765656
%%linebreak <none>
%%barnumbers 0
L: 1/8
M: 3/4
N: Derived from pl-kozmzk--mzk-m-159--038_walczynski-franciszek--praeludia-organi-op-5-maestoso.krn
Q: "38. Maestoso."
%%staves {1 2}
V: 1 clef=treble
V: 2 clef=bass
K: Db
[V:1] D2>E2FB & D2>E2FB | 
[V:2] D,2>E,2F,B, & D,2>E,2F,B, | 
[V:1] A2>F2DE & A2>F2DE | 
[V:2] A,2>F,2D,E, & A,2>F,2D,E, | 
[V:1] F2>B2df & F2>B2df | 
[V:2] F,2>B,2DF & F,2>B,2DF | 
[V:1] e2>c2AB & e2>c2AA | 
[V:2] E2>C2A,B, & E2>C2A,F, | 
[V:1] cdB2c2 & A4=G2 | 
[V:2] EF2<E2_D- & E,6 | 
[V:1] !fermata!A6 & A6 | 
[V:2] D2C=B,!fermata!C2 & !fermata!A,6 | 
[V:1] e2>d2 cB & A4GF | 
[V:2] G2>F2 ED & z6 | 
[V:1] A2>B2AG & E2>F2ED | 
[V:2] C2>D2CB, & z6 | 
[V:1] F6 & C6 | 
[V:2] A,6 & =F,2>G,2F,E, | 
[V:1] B2>_c2BA & F6 | 
[V:2] B,6- & =D,6 | 
[V:1] G6 & E2>F2ED | 
[V:2] B,6 & E,6 | 
[V:1] A2>B2AG & E6 | 
[V:2] A,6- & C,6 | 
[V:1] F2>G2FE & D6- | 
[V:2] A,2>B,2A,G, & D,6- | 
[V:1] D2!accent!E4 & D2D2C2 | 
[V:2] F,2B,2A,G,- & D,2G,,2A,,2 | 
[V:1] D6- & A,6- | 
[V:2] G,2>E,2 F,G, & D,6- | 
[V:1] !fermata!D6 & A,6 |]  
[V:2] F,6 & !fermata!D,6 |]  


